svgs/device_info_hw.svg

<svg width="24" height="24" viewBox="0 0 24 24" fill="none" xmlns="http://www.w3.org/2000/svg">
<path fill-rule="evenodd" clip-rule="evenodd" d="M8 2C6.89543 2 6 2.89543 6 4V20C6 21.1046 6.89543 22 8 22H16C17.1046 22 18 21.1046 18 20V4C18 2.89543 17.1046 2 16 2H8ZM7 4V20H17V17.2565H16.0082V18.2565H13.5082V15.7565H14.5082V13.2565H13.5082V10.7565H14.5082V8.25651H13.5082V7.25651H12.5V20H11.5V4H7ZM16.0082 16.7565H17V4H12.5V6.75651H13.5082V5.75651H16.0082V8.25651H15.0082V10.7565H16.0082V13.2565H15.0082V15.7565H16.0082V16.7565Z" fill="#FFF1C0"/>
</svg>

<svg xmlns="http://www.w3.org/2000/svg" viewBox="0 0 24 24"><path fill-rule="evenodd" d="M8 2a2 2 0 0 0-2 2v16a2 2 0 0 0 2 2h8a2 2 0 0 0 2-2V4a2 2 0 0 0-2-2zM7 4v16h10v-2.744h-.992v1h-2.5v-2.5h1v-2.5h-1v-2.5h1v-2.5h-1v-1H12.5V20h-1V4zm9.008 12.756H17V4h-4.5v2.757h1.008v-1h2.5v2.5h-1v2.5h1v2.5h-1v2.5h1v1"/></svg>
